Newaita-dark/actions/32/accept_signal.svg

<svg height="32" viewBox="0 0 32 32" width="32" xmlns="http://www.w3.org/2000/svg"><path d="m24.476562 2.894531c-.230468 0-.449218.03125-.660156.085938v-.078125h-19.847656c-.484375 0-.929688.265625-1.160156.695312-.230469.429688-.203125.949219.066406 1.351563l7.449219 11.175781-7.449219 11.179688c-.269531.402343-.296875.921874-.066406 1.351562.230468.425781.675781.695312 1.160156.695312h19.847656v-.078124c.210938.054687.429688.082031.660156.082031h1.984376c1.464843 0 2.644531-1.179688 2.644531-2.644531v-21.167969c0-1.464844-1.179688-2.648438-2.644531-2.648438zm-18.046874 2.640625h15.402343v.007813h3.304688c.734375 0 1.324219.589843 1.324219 1.320312v18.523438c0 .734375-.589844 1.324219-1.324219 1.324219h-3.304688v.007812h-15.402343l6.574218-9.863281c.292969-.441407.292969-1.015625 0-1.460938zm0 0" fill="#e0e0e0"/></svg>

<?xml version="1.0" encoding="UTF-8"?>
<svg xmlns="http://www.w3.org/2000/svg" xmlns:xlink="http://www.w3.org/1999/xlink" width="32px" height="32px" viewBox="0 0 32 32" version="1.1">
<g id="surface1">
<path style=" stroke:none;fill-rule:nonzero;fill:rgb(87.843138%,87.843138%,87.843138%);fill-opacity:1;" d="M 24.476562 2.894531 C 24.246094 2.894531 24.027344 2.925781 23.816406 2.980469 L 23.816406 2.902344 L 3.96875 2.902344 C 3.484375 2.902344 3.039062 3.167969 2.808594 3.597656 C 2.578125 4.027344 2.605469 4.546875 2.875 4.949219 L 10.324219 16.125 L 2.875 27.304688 C 2.605469 27.707031 2.578125 28.226562 2.808594 28.65625 C 3.039062 29.082031 3.484375 29.351562 3.96875 29.351562 L 23.816406 29.351562 L 23.816406 29.273438 C 24.027344 29.328125 24.246094 29.355469 24.476562 29.355469 L 26.460938 29.355469 C 27.925781 29.355469 29.105469 28.175781 29.105469 26.710938 L 29.105469 5.542969 C 29.105469 4.078125 27.925781 2.894531 26.460938 2.894531 Z M 6.429688 5.535156 L 21.832031 5.535156 C 21.832031 5.539062 21.832031 5.539062 21.832031 5.542969 L 25.136719 5.542969 C 25.871094 5.542969 26.460938 6.132812 26.460938 6.863281 L 26.460938 25.386719 C 26.460938 26.121094 25.871094 26.710938 25.136719 26.710938 L 21.832031 26.710938 C 21.832031 26.714844 21.832031 26.714844 21.832031 26.71875 L 6.429688 26.71875 L 13.003906 16.855469 C 13.296875 16.414062 13.296875 15.839844 13.003906 15.394531 Z M 6.429688 5.535156 "/>
</g>
</svg>
